X: 1122
T: Amy's Favourite
R: reel
M: 4/4
K: Eminor
B G3 cBAc|BG3 EGDE|G3A B2 cd|egde g3 a|
bg3 (3ege de|gedB BAGE|DG3 A2 AB|cAFA G3 A:|
(3Bcd d2 gd3|egdB G3 A|B2 (3Bcd eg3|gedB A2GA|
B2 (3Bcd eg3|gede g3 a|bgag gedc|B3 A G3 A|
(3Bcd d2 gd3|egdB G3 A-|AG (3Bcd eg3|gaag a2d'2|
g3a bgag|egdB BAGE|DG3 A2 (3Bcd|cAFA gedc||

